mobile/24/svg/bookmark-24.svg

<svg width="24" height="24" viewBox="0 0 24 24" fill="none" xmlns="http://www.w3.org/2000/svg">
<path d="M7.22995 21.5C6.78995 21.5 6.33995 21.36 5.96995 21.09C5.24995 20.57 4.92995 19.68 5.14995 18.82L6.20995 14.67L2.90995 11.93C2.22995 11.36 1.95995 10.45 2.23995 9.61C2.50995 8.77 3.25995 8.18 4.14995 8.13L8.42995 7.85L10.01 3.87C10.34 3.05 11.12 2.51 12.01 2.51C12.9 2.51 13.68 3.04 14.01 3.87L15.59 7.85L19.87 8.13C20.75 8.19 21.5 8.77 21.78 9.61C22.05 10.45 21.79 11.37 21.11 11.93L17.81 14.67L18.87 18.82C19.09 19.68 18.77 20.57 18.05 21.09C17.33 21.61 16.38 21.64 15.63 21.17L12.01 18.88L8.38995 21.17C8.03995 21.39 7.63995 21.51 7.23995 21.51L7.22995 21.5ZM12 4.25C11.9 4.25 11.71 4.28 11.63 4.5L9.83995 9C9.71995 9.31 9.41995 9.53 9.07995 9.55L4.24995 9.86C4.00995 9.88 3.91995 10.04 3.88995 10.14C3.85995 10.22 3.82995 10.42 4.01995 10.58L7.73995 13.67C7.99995 13.89 8.10995 14.23 8.02995 14.56L6.83995 19.25C6.77995 19.48 6.90995 19.62 6.98995 19.68C7.06995 19.74 7.23995 19.82 7.43995 19.69L11.53 17.1C11.82 16.92 12.18 16.92 12.46 17.1L16.55 19.69C16.75 19.82 16.92 19.74 17 19.68C17.08 19.62 17.21 19.48 17.15 19.25L15.95 14.56C15.87 14.23 15.98 13.89 16.24 13.67L19.96 10.58C20.15 10.42 20.11 10.22 20.09 10.15C20.06 10.05 19.97 9.89 19.73 9.87L14.9 9.56C14.56 9.54 14.27 9.32 14.14 9.01L12.35 4.51C12.26 4.29 12.08 4.26 11.98 4.26L12 4.25Z" fill="black"/>
</svg>

<svg width="24" height="24" fill="none" xmlns="http://www.w3.org/2000/svg"><path d="M7.23 21.5c-.44 0-.89-.14-1.26-.41a2.13 2.13 0 0 1-.82-2.27l1.06-4.15-3.3-2.74c-.68-.57-.95-1.48-.67-2.32.27-.84 1.02-1.43 1.91-1.48l4.28-.28 1.58-3.98a2.15 2.15 0 0 1 2-1.36c.89 0 1.67.53 2 1.36l1.58 3.98 4.28.28c.88.06 1.63.64 1.91 1.48.27.84.01 1.76-.67 2.32l-3.3 2.74 1.06 4.15c.22.86-.1 1.75-.82 2.27s-1.67.55-2.42.08l-3.62-2.29-3.62 2.29c-.35.22-.75.34-1.15.34l-.01-.01zM12 4.25c-.1 0-.29.03-.37.25L9.84 9c-.12.31-.42.53-.76.55l-4.83.31c-.24.02-.33.18-.36.28-.03.08-.06.28.13.44l3.72 3.09c.26.22.37.56.29.89l-1.19 4.69c-.06.23.07.37.15.43.08.06.25.14.45.01l4.09-2.59c.29-.18.65-.18.93 0l4.09 2.59c.2.13.37.05.45-.01.08-.06.21-.2.15-.43l-1.2-4.69c-.08-.33.03-.67.29-.89l3.72-3.09c.19-.16.15-.36.13-.43a.386.386 0 0 0-.36-.28l-4.83-.31a.886.886 0 0 1-.76-.55l-1.79-4.5a.378.378 0 0 0-.37-.25l.02-.01z" fill="#000"/></svg>
